X:1
T:Credo
T:Credo
T:Courtesy of the Cyber Hymnal (http://www.cyberhymnal.org)
T:Courtesy of the Cyber Hymnal (http://www.cyberhymnal.org)
Z:Courtesy of the Cyber Hymnal (http://www.cyberhymnal.org)
%%score { ( 1 2 ) ( 3 4 ) }
L:1/8
Q:1/4=150
M:1/4
K:Eb
V:1 treble nm="P1"
V:2 treble 
V:3 bass nm="P2"
V:4 bass 
V:1
"^Editor: John Henry Fowler""^( Revision: 11-26-2007 )" G2 |[M:4/4] G2 G2 G2 c2 | =B2 c2 G2 F2 | %3
 E2"^( 1875 )" G2 B2 A2 | G2 F2 E2 E2 | A3 A G2 E2 |"^John Stainer""^( 1840 - 1901 )" c2 c2 c2 E2 | %7
 F2 A2 A2 G2 | E2 F2 G2[Q:1/4=110] z2 |[K:C] G2 G>G c3 c | B2 A2 G2 G2 | c3 c c2 d2 | %12
[M:3/4] e2 d2 c2 |] %13
V:2
 G2 |[M:4/4] D2 G2 G2 G2 | F2 E2 D2 B,2 | C2 E2 G2 F2 | E2 D2 E2 E2 | E3 E E2 E2 | E2 E2 E2 E2 | %7
 C2 F2 F2 E2 | C2 D2 D2 x2 |[K:C] G2 G>G c3 E | G2 F2 E2 E2 | E3 E F2 ^F2 |[M:3/4] G2 G2 G2 |] %13
V:3
 G,2 |[M:4/4] =B,2 B,2 C2 C2 | D2 G,2 G,2 G,2 | G,2 C2 C2 C2 | B,2 A,2 G,2 G,2 | A,3 A, B,2 G,2 | %6
 A,2 A,2 B,2 B,2 | C2 C2 B,2 B,2 | C2 C2 =B,2 z2 |[K:C] G,2 G,>G, C3 C | C2 C2 C2 .C2 | %11
 C3 C C2 C2 |[M:3/4] C2 B,F E2 |] %13
V:4
 G,2 |[M:4/4] G,2 F,2 E,2 E,2 | D,2 C,2 =B,,2 G,,2 | C,2 C,2 A,,2 A,,2 | B,,2 B,,2 E,2 E,2 | %5
 C,3 C, B,,2 B,,2 | A,,2 A,2 G,2 G,2 | A,2 F,2 D,2 E,2 | A,2 A,2 G,2 x2 |[K:C] G,2 G,>G, C3 A, | %10
 E,2 F,2 C,2 C2 | _B,3 B, A,2 _A,2 |[M:3/4] G,2 (G,2 C,2) |] %13

